P2
12 12
255
24 24 24 24 24 24 224 224 224 224 224 224
24 24 24 24 24 24 224 224 224 224 224 224
24 24 24 24 24 24 224 224 224 224 224 224
24 24 24 24 24 24 224 224 224 224 224 224
24 24 24 24 24 24 224 224 224 224 224 224
24 24 24 24 24 24 224 224 224 224 224 224
24 24 24 24 24 24 224 224 224 224 224 224
24 24 24 24 24 24 224 224 224 224 224 224
24 24 24 24 24 24 224 224 224 224 224 224
24 24 24 24 24 24 224 224 224 224 224 224
24 24 24 24 24 24 224 224 224 224 224 224
24 24 24 24 24 24 224 224 224 224 224 224
