P2
12 12
255
16 240 16 240 16 240 16 240 16 240 16 240
240 16 240 16 240 16 240 16 240 16 240 16
16 240 16 240 16 240 16 240 16 240 16 240
240 16 240 16 240 16 240 16 240 16 240 16
16 240 16 240 16 240 16 240 16 240 16 240
240 16 240 16 240 16 240 16 240 16 240 16
16 240 16 240 16 240 16 240 16 240 16 240
240 16 240 16 240 16 240 16 240 16 240 16
16 240 16 240 16 240 16 240 16 240 16 240
240 16 240 16 240 16 240 16 240 16 240 16
16 240 16 240 16 240 16 240 16 240 16 240
240 16 240 16 240 16 240 16 240 16 240 16
